X:173
T:A Waltz
O:No 173 William Clarke of Feltwell
M:3/8
L:1/8
N:In m.s. time signature given as 5(or 3)/6
N:D.C. shown at end of C music, and a pause sign shown at end of A (should be 'fine'?)
K:F
c|f2c|(bgf)|(eg)c|=Bc_B|(Af)A|Gdc|F2 !FINE!::E/F/|Gce|g2c|df=B|ceG|Ece|g2e|e/d/f/d/c/=B/|c2::f/e/|d (d/e/f/g/)|a (a/g/f/e/)|f (d/e/f/g/)|^g/a/ AB/^c/|d/D/d/e/f/g/|a/g/f/e/d/^c/|d/B/A/G/F/E/|D!D.C!:|

